X:33
T:Balmoral Castle
R:Strathspey
B:The Athole Collection
M:C
L:1/8
K:G
B|G<G g2 d<gB<g|d<B g>a b/a/g/f/ g<e|d<B g2 d<fB<b|
D<B B>G A3:|
|:B|G>DB,>G, D>G,B,>G,|C>A,B,>G B,/C/D G>B|1 G>DB,>G D>G,B,>G,|
c>A c/B/A/G/ A2 A>B:|2 G<G B2 d<B B>g|B<B B>G A2A||

